X: 26720
T: Mike MacDougall's
R: jig
M: 6/8
K: Gmajor
|:zE|DB,D GAB|BAB edB|BdB GAB|c2 B AGE|
D^CD GAB|BAB def|gag edB|AGF G:|
|:Bd|g2 e dBd|gab agf|g2 e dBd|gab a2 b|
age dBd|g2 g aga|bag edB|AGF G:|

